X: 22607
T: Lady Owen's Delight
R: waltz
M: 3/4
K: Gmajor
|:dc|"G" B2 c2 d2|"C" E2 F2 G2|"Am" A2 B2 G2|"D" F4 d2|
"G" B2 G2 c2|"Bm7" A2 F2 B2|"D" G2 A2 F2|"G" G4:|
dc|"G" B4 B2|"C" c2 e2 d2|"Am" cB A2 G2|"D" F4|
dc|"G" B3 cd2|"Am" e2 A2 d2|"A7" g2 e2^c2|"D" d4c2|
"G" B2 c2 d2|"C" ef g2 d2|"Am" e2 A2 G2|"D" F4 d2|
"G " B2 G2 c2|"Bm7" A2 F2 B2|"D" G2 A2 F2|"G" G4||

